assets/images/payments/paypal-dark.svg

<svg width="100" height="60" viewBox="0 0 100 60" version="1.1" xmlns="http://www.w3.org/2000/svg" xmlns:xlink="http://www.w3.org/1999/xlink"><title>Paypal-dark</title><desc>Created with Sketch.</desc><g id="Dark-Payment-badges" stroke="none" stroke-width="1" fill="none" fill-rule="evenodd" transform="translate(-770.000000, -489.000000)"><g id="Paypal-dark" transform="translate(820.000000, 519.000000) scale(1, -1) translate(-820.000000, -519.000000) translate(770.000000, 489.000000)"><rect id="Rectangle" fill="#00457C" x="0" y="0" width="100" height="60" rx="4"/><path d="M78.4262145,38.0066182 L76.4094495,25.1748485 C76.370166,24.9264753 76.5621484,24.7015455 76.8136896,24.7015455 L78.842493,24.7015455 C79.1783037,24.7015455 79.4646932,24.946117 79.5166488,25.2781261 L81.5055351,37.8792636 C81.5448186,38.1276368 81.3528363,38.3525666 81.1006614,38.3525666 L78.8310881,38.3525666 C78.6289681,38.3525666 78.4572611,38.2062038 78.4262145,38.0066182" id="Shape" fill="#FFF"/><path d="M53.1349179,33.8068304 L50.7696702,33.8068304 C50.5434732,33.8068304 50.3318491,33.6946823 50.2051281,33.5071352 L46.942062,28.7018744 L45.5595358,33.3195881 C45.4727319,33.608512 45.2066177,33.8068304 44.9050217,33.8068304 L42.5803248,33.8068304 C42.2996377,33.8068304 42.1019529,33.5305786 42.1925585,33.2650981 L44.7966753,25.6200194 L42.3471581,22.1637038 C42.1551758,21.8925208 42.3490589,21.5174266 42.6817016,21.5174266 L45.0444148,21.5174266 C45.2680774,21.5174266 45.4778007,21.6270403 45.6057889,21.8107857 L53.4713622,33.1637213 C53.6595429,33.4355378 53.4656598,33.8068304 53.1349179,33.8068304" id="Shape" fill="#FFF"/><path d="M72.3731318,29.2265628 C72.1456676,27.8820528 71.0786767,26.9791656 69.7170594,26.9791656 C69.0346668,26.9791656 68.4878656,27.1990266 68.1368484,27.6146715 C67.7883656,28.0265148 67.657843,28.6138667 67.7680902,29.2671135 C67.9797143,30.6002185 69.0644462,31.531618 70.4051545,31.531618 C71.0736079,31.531618 71.6159738,31.3098562 71.9739607,30.8904097 C72.3344819,30.4677951 72.4764095,29.8772752 72.3731318,29.2265628 M75.6526717,33.8068938 L73.2994624,33.8068938 C73.097976,33.8068938 72.9262691,33.660531 72.8945888,33.4609454 L72.7913112,32.8032634 L72.6265739,33.0414989 C72.1171554,33.780916 70.9811015,34.0286555 69.8469485,34.0286555 C67.2472669,34.0286555 65.0264811,32.0581438 64.5943625,29.2949921 C64.3694327,27.9162675 64.6887696,26.5990026 65.4706383,25.6796416 C66.1885128,24.8350461 67.2130522,24.4833953 68.4340092,24.4833953 C70.5299747,24.4833953 71.6920064,25.8291724 71.6920064,25.8291724 L71.586828,25.175292 C71.5475444,24.9269188 71.7395268,24.701989 71.9917016,24.701989 L74.1104769,24.701989 C74.4469212,24.701989 74.7326771,24.945927 74.7852663,25.277936 L76.0575453,33.3335908 C76.0968288,33.581964 75.9042129,33.8068938 75.6526717,33.8068938" id="Shape" fill="#FFF"/><path d="M37.3222264,29.2265628 C37.0947622,27.8820528 36.0277713,26.9791656 34.666154,26.9791656 C33.9837613,26.9791656 33.4369601,27.1990266 33.0859429,27.6146715 C32.7380938,28.0265148 32.6069375,28.6138667 32.7171848,29.2671135 C32.9288089,30.6002185 34.0135408,31.531618 35.3542491,31.531618 C36.0227024,31.531618 36.5650684,31.3098562 36.9230552,30.8904097 C37.2835765,30.4677951 37.425504,29.8772752 37.3222264,29.2265628 M40.6017662,33.8068938 L38.248557,33.8068938 C38.0470706,33.8068938 37.8753636,33.660531 37.8436834,33.4609454 L37.7404057,32.8032634 L37.576302,33.0414989 C37.06625,33.780916 35.9301961,34.0286555 34.796043,34.0286555 C32.1963614,34.0286555 29.9755757,32.0581438 29.543457,29.2949921 C29.3185272,27.9162675 29.6378642,26.5990026 30.4197328,25.6796416 C31.1376074,24.8350461 32.1621468,24.4833953 33.3831037,24.4833953 C35.4790693,24.4833953 36.641101,25.8291724 36.641101,25.8291724 L36.5359225,25.175292 C36.496639,24.9269188 36.6886213,24.701989 36.9407962,24.701989 L39.0595715,24.701989 C39.3960158,24.701989 39.6817717,24.945927 39.7343609,25.277936 L41.0066399,33.3335908 C41.0459234,33.581964 40.8533074,33.8068938 40.6017662,33.8068938" id="Shape" fill="#FFF"/><path d="M26.4804201,33.7503762 C26.2117715,31.9864197 24.8647271,31.9864197 23.5614015,31.9864197 L22.8200836,31.9864197 L23.3402734,35.2798988 C23.37132,35.4788508 23.543027,35.6252136 23.7445134,35.6252136 L24.0847593,35.6252136 C24.9718064,35.6252136 25.8094323,35.6252136 26.241551,35.1202304 C26.5000618,34.8180007 26.5779952,34.3694084 26.4804201,33.7503762 M25.9133435,38.3528834 L20.9991027,38.3528834 C20.6626584,38.3528834 20.3769025,38.1083118 20.3243133,37.7763028 L18.3373278,25.1751653 C18.2980443,24.9267921 18.4900266,24.7018623 18.7415678,24.7018623 L21.088441,24.7018623 C21.4242516,24.7018623 21.7100075,24.9464338 21.7625968,25.2778093 L22.2992602,28.6777341 C22.3512159,29.0097431 22.6376053,29.2543147 22.973416,29.2543147 L24.5282829,29.2543147 C27.7653711,29.2543147 29.6338725,30.8205864 30.1217484,33.9258848 C30.3416093,35.2830669 30.1306188,36.3500578 29.495113,37.0970782 C28.7962466,37.9182303 27.5575487,38.3528834 25.9133435,38.3528834" id="Shape" fill="#FFF"/><path d="M61.5312621,33.7503762 C61.2626136,31.9864197 59.9155692,31.9864197 58.6122436,31.9864197 L57.8709257,31.9864197 L58.3911154,35.2798988 C58.4221621,35.4788508 58.5938691,35.6252136 58.7953555,35.6252136 L59.1356014,35.6252136 C60.0226485,35.6252136 60.8602744,35.6252136 61.292393,35.1202304 C61.5509039,34.8180007 61.6288373,34.3694084 61.5312621,33.7503762 M60.9641856,38.3528834 L56.0499447,38.3528834 C55.7135004,38.3528834 55.4277446,38.1083118 55.3751553,37.7763028 L53.3881699,25.1751653 C53.3488863,24.9267921 53.5415023,24.7018623 53.7924099,24.7018623 L56.314158,24.7018623 C56.5492255,24.7018623 56.7494447,24.8729356 56.7861938,25.1048351 L57.3501023,28.6777341 C57.4020579,29.0097431 57.6884474,29.2543147 58.0242581,29.2543147 L59.5791249,29.2543147 C62.8162132,29.2543147 64.6847146,30.8205864 65.1725905,33.9258848 C65.3924514,35.2830669 65.1814609,36.3500578 64.545955,37.0970782 C63.8470887,37.9182303 62.6083908,38.3528834 60.9641856,38.3528834" id="Shape" fill="#FFF"/></g></g></svg>

<svg width="100" height="60" xmlns="http://www.w3.org/2000/svg"><g transform="matrix(1 0 0 -1 0 60)" fill="none" fill-rule="evenodd"><rect fill="#00457C" width="100" height="60" rx="4"/><path d="M78.426 38.007L76.41 25.175a.41.41 0 01.405-.473h2.028c.336 0 .623.244.675.576l1.989 12.601a.41.41 0 01-.405.474h-2.27a.409.409 0 01-.405-.346m-25.292-4.2H50.77a.681.681 0 01-.565-.3l-3.263-4.805-1.382 4.618a.684.684 0 01-.655.487H42.58a.41.41 0 01-.387-.542l2.604-7.645-2.45-3.456a.41.41 0 01.335-.647h2.362c.224 0 .434.11.562.294l7.865 11.353a.41.41 0 01-.336.643m19.238-4.58c-.227-1.345-1.294-2.248-2.656-2.248-.682 0-1.23.22-1.58.636-.349.412-.48.999-.369 1.652.212 1.333 1.296 2.265 2.637 2.265.669 0 1.211-.222 1.569-.642.36-.422.502-1.013.4-1.663m3.279 4.58h-2.354a.41.41 0 01-.404-.346l-.104-.658-.164.238c-.51.74-1.646.988-2.78.988-2.6 0-4.82-1.97-5.253-4.734-.225-1.379.095-2.696.877-3.615.718-.845 1.742-1.197 2.963-1.197 2.096 0 3.258 1.346 3.258 1.346l-.105-.654a.41.41 0 01.405-.473h2.118c.337 0 .623.244.675.576l1.273 8.056a.41.41 0 01-.405.473m-38.331-4.58c-.227-1.345-1.294-2.248-2.656-2.248-.682 0-1.229.22-1.58.636-.348.412-.48.999-.369 1.652.212 1.333 1.297 2.265 2.637 2.265.669 0 1.211-.222 1.57-.642.36-.422.502-1.013.398-1.663m3.28 4.58h-2.353a.41.41 0 01-.405-.346l-.104-.658-.164.238c-.51.74-1.646.988-2.78.988-2.6 0-4.82-1.97-5.253-4.734-.224-1.379.095-2.696.877-3.615.718-.845 1.742-1.197 2.963-1.197 2.096 0 3.258 1.346 3.258 1.346l-.105-.654a.41.41 0 01.405-.473h2.119c.336 0 .622.244.674.576l1.273 8.056a.41.41 0 01-.405.473M26.48 33.75c-.268-1.764-1.615-1.764-2.919-1.764h-.74l.52 3.294a.409.409 0 00.404.345h.34c.887 0 1.724 0 2.157-.505.258-.302.336-.75.238-1.37m-.567 4.603H21a.683.683 0 01-.675-.577l-1.987-12.6a.41.41 0 01.405-.474h2.346c.336 0 .622.244.675.576l.536 3.4a.682.682 0 00.674.576h1.555c3.237 0 5.106 1.567 5.594 4.672.22 1.357.009 2.424-.627 3.171-.699.821-1.937 1.256-3.582 1.256m35.617-4.603c-.268-1.764-1.615-1.764-2.919-1.764h-.741l.52 3.294a.409.409 0 00.404.345h.34c.888 0 1.725 0 2.157-.505.259-.302.337-.75.24-1.37m-.568 4.603H56.05a.683.683 0 01-.675-.577l-1.987-12.6a.41.41 0 01.404-.474h2.522c.235 0 .435.17.472.403l.564 3.573a.682.682 0 00.674.576h1.555c3.237 0 5.106 1.567 5.594 4.672.22 1.357.008 2.424-.627 3.171-.699.821-1.938 1.256-3.582 1.256" fill="#FFF"/></g></svg>
